X: 862
T: Sally Growler
C:Harry Carleton
B: jims roots
M:2/4
L:1/8
R: hornpipe
Q: 1/4=100
K:G
V:1 
((3def)|g2f2e2d2|{d}cBc"4"e dBGD| EGc"4"e DGBd|^cbaf d^def|
g2f2e2d2|{d}cBc"4"e dBGD|EGc"4"e dBGA|BdcA G2:|
|:ef|gdBd GBdg|bgdg Bdgb|afdf Adf"3"a|"4"c'afd cAFD|
gdBd GBdg|bgdg Bdgb|"4"c'"3"afd ^cdef|g2b2g2:|
% abcbook-tune_id 6298c2878fbd63e7c8c27ef2


% abcbook-boost 0
% abcbook-tablature 
% abcbook-transpose 
% abcbook-lastupdated 1654178440069
% abcbook-soundfonts 
% abcbook-repeats 1


